X:1
T:Title
L:1/8
Q:1/4=87
M:6/8
K:C
V:1 treble nm="Church Organ, Staff"
V:1
 cAB c G2 | cAB c G2 | AFE FGA | F E2- E/ z/ D2 | GEF G A2 | cBc d G2 | Gcd BAB | G ^F2 E D2 | %8
w: By~Arthur~H.~Brown * * * *||||||||
 GG^F EDE | D D2- D/ z/ D2 | G c2 ccB | A G2 A G2 | d e2 dcB | c d2 cBA | G c2 c c2 | c c2 EFG | %16
w: ||||||||
 A G2 c d2- | d c2- c .c2 |] %18
w: ||

